X:1
T:Carol of the Bells
T:Carol of the Bells
T:Carol of the Bells
T:Pentatonix
T:arr. Reese Blaskowski
T:©
T:©
T:©
T:©
T:©
T:©
T:©
Z:©
%%score [ [ 1 2 ] 3 4 ]
L:1/8
Q:1/4=160
M:3/4
K:Eb
V:1 treble transpose=-2 nm="Bb Trumpet" snm="Bb Tpt."
V:2 treble transpose=-2 nm="Bb Trumpet" snm="Bb Tpt."
V:3 bass nm="Trombone" snm="Trb."
V:4 bass nm="Bass Trombone" snm="B. Tbn."
V:1
[K:F]"^160 bpm" z6 |!mp! z2 (FE DE | .F2) (FE DE | .F2) (DE .F2) | c2 (BA GA | .B2) .D2 .B2 | %6
 .D2 .B2 (cB | .A2) .A2 (GF |!<(! E2 F2 G2)!<)! |!mf! F2 (FE DE | .F2) (FE DE | .F2) (DE .F2) | %12
 .c2 BA GA | .B2 .D2 BA | .G2 .D2 AB | A4 GF |!<(! !tenuto!E2 !tenuto!F2 !tenuto!G2!<)! || %17
!f! D4 (FG | A6) | F6 | !tenuto!c2 !tenuto!B2 !tenuto!A2 | G4 (Bc | d4) (de) | %23
!<(! !tenuto!f2 !tenuto!e2 !tenuto!d2 | !tenuto!d2 !tenuto!^c2 !tenuto!A2!<)! |!f! D4 (FG | A6) | %27
 F6 | !tenuto!c2 !tenuto!B2 !tenuto!A2 | G4 (Bc | d4) (de) |!<(! !tenuto!f2 !tenuto!e2 !tenuto!d2 | %32
!ff! !tenuto!d2!<)! !tenuto!^c2 !tenuto!A2 ||!mf! F2 (EF) D2 |!mf! F2 (EF) D2 |!mf! F2 (EF) D2 | %36
!mf! F2 (EF) D2 |!mf! F2 (EF) D2 |!mf! F2 (EF) D2 |!mf! F2 (EF) D2 |!mf! F2 (EF) D2 | %41
!mf! F2 (EF) D2 |!mf! F2 (EF) D2 |!mf! F2 (EF) D2 | A6 | C6 |!mp! =B,6 |!<(! D2 F2 B2 | G6!<)! | %49
!f! D6 | !tenuto!F2 !tenuto!G2 !tenuto!A2 | G6 | (AG) F2 E2 |!ff! d2 !tenuto!d!tenuto!d (cB) | %54
 A2 !tenuto!A!tenuto!A (GF) | G2 !tenuto!G!tenuto!G (AG) | F2 !tenuto!D!tenuto!D !tenuto!D2 | %57
 (A=B) ^cd ef | ga (g2 f2) | (A=B) ^cd ef | ga (g2 f2) | D6 | A6 | G6- | G6 | %65
!mf! !tenuto!.d3 !tenuto!.d3 | !tenuto!.d3 z z2 || !>!A3 !tenuto!F3 | !tenuto!G3 !tenuto!C3 | %69
 !tenuto!C3 !tenuto!G3 | !tenuto!A3 !tenuto!F3 | !tenuto!c3 !tenuto!B3 | !tenuto!A3 !tenuto!F3 | %73
 !tenuto!E3 !tenuto!^C3 |!<(! !tenuto!D6!<)! ||!f! A,6 | A6 | F6 | %78
 !tenuto!c2 !tenuto!B2 !tenuto!A2 | G4 (Bc | d4) (de) |!<(! !tenuto!f2 !tenuto!e2 !tenuto!d2 | %82
 !tenuto!d2 !tenuto!^c2 !tenuto!A2!<)! |!f! D4 (FG | A6) | F6 | !tenuto!c2 !tenuto!B2 !tenuto!A2 | %87
 G4 (Bc | d4) (de) |!<(! !tenuto!f2 !tenuto!e2 !tenuto!d2 | %90
!ff! !tenuto!d2!<)! !tenuto!^c2 !tenuto!A2 ||!mf! F2 (EF) D2 | F2 (EF) D2 | F2 (EF) D2 | %94
 F2 (EF) D2- | D4 z2 | z6 | z6 | z6 | F2 (EF) D2 | F2 (EF) D2 | F2 (EF) D2 | F2 (EF) D2 | z6 | z6 | %105
 z6 | z6 |!f! A2 (GA) F2 | A2 (GA) F2 | A2 (GA) F2 | A2 (GA) F2 |!ff! d2 dd (cB) | A2 AA (GF) | %113
 G2 GG (AG) | F2 DD D2 | (A,=B, ^CD EF | GA) (G2 F2- |!>(! F6)!>)! | z6 |!ff! (A,=B, ^CD EF | %120
 GA) (G2 F2- |!>(! F6)!>)! | z6 | F2 (EF) D2 | F2 (EF) D2 | F2 (EF) D2 | F2 (EF) D2 | %127
!mf! !tenuto!.d3 !tenuto!.d3 | !tenuto!.d3 z z2 || z6 | z6 | z6 | z6 | z6 | z6 | z6 | z6 | %137
!mf! (AG FE D2) | (BA GF G2) | E2 c2 A2 | A2 (F2 A2) | (F2 D2 F2) | (G2 G2 G2) | E2 ^C2 E2 | %144
 (^F2 F2 F2) | F3 E3 | D4 EF | E3 G3 | F2 C2 FG | A2 FG A2 | B6 | A6 | d2 A2 (AG) | F3 E3 | %154
!<(! D4 (EF)!<)! |!f! E3 G3 | F2 C2 (FG) | (A2 FG A2) | B6 | A6 | d2 A2 (AG) |!mp! F6- | %162
 !fermata!F2 z2 z2 ||!mp! z2 (FE DE | .F2) (FE DE | .F2) (DE .F2) | c2 (BA GA | .B2) .D2 .B2 | %168
 .D2 .B2 (cB | A2) A2 (GF | E2) F2 G2 | F2 (FE DE | F2) (FE DE | F2) (DE F2) | d3 (E FG) | %175
 A3 G F2 |"^rit." !tenuto!E2 !tenuto!D2 !tenuto!E2 | ^F6 |] %178
V:2
[K:F] z6 | z6 | z6 | z6 | z6 | z6 | z6 | z6 | z6 | z6 | z6 | z6 |!mp! .A2 GF EF | .G2 .G2 GF | %14
 .E2 .F2 AA | G6 |!<(! !tenuto!G2 !tenuto!A2!<)! !tenuto!B2 ||!f! A,6 | A2 G3 F | F6 | %20
 !tenuto!F2 !tenuto!G2 !tenuto!A2 | B4 (GF | G4) (Bc) |!<(! !tenuto!B2 !tenuto!A2 !tenuto!A2 | %24
 !tenuto!A2 !tenuto!G2 !tenuto!G2!<)! |!f! A,6 | A2 G3 F | F6 | !tenuto!F2 !tenuto!G2 !tenuto!A2 | %29
 B4 (GF | G4) (Bc) |!<(! !tenuto!B2 !tenuto!A2 !tenuto!A2 | %32
!ff! !tenuto!A2!<)! !tenuto!G2 !tenuto!G2 ||!p! A6- | A6 | A6- | A6 | G6- | G6 | F6 | G6 | D6- | %42
 D6 | C6 |!mf! F2 (EF) D2 | F2 (EF) D2 | F2 (EF) D2 |!<(! F2 A2 B2 | A6!<)! | z6 | z6 | z6 | z6 | %53
!mf! F6 | A6 | c6 | A4 (GF) | E6 | F2 G2 A2 | E6 | F2 G2 A2 | F2 (EF) D2 | F2 (EF) D2 | %63
 F2 (EF) D2 | F2 (EF) D2 |!mf! !tenuto!.A3 !tenuto!.A3 | !tenuto!.A3 z z2 ||!mp! !>!A6 | G6 | B6 | %70
 F6 | E6 | F6 | ^C6 |!<(! D6!<)! ||!f! A6 | A2 G3 F | F6 | !tenuto!F2 !tenuto!G2 !tenuto!A2 | %79
 B4 (GF | G4) (Bc) |!<(! !tenuto!B2 !tenuto!A2 !tenuto!A2 | !tenuto!A2 !tenuto!G2 !tenuto!G2!<)! | %83
!f! A,6 | A2 G3 F | F6 | !tenuto!F2 !tenuto!G2 !tenuto!A2 | B4 (GF | G4) (Bc) | %89
!<(! !tenuto!B2 !tenuto!A2 !tenuto!A2 |!ff! !tenuto!A2!<)! !tenuto!G2 !tenuto!G2 ||!mp! D6 | %92
 D3 F3 | E6- | E2 F2 E2 | D6- | D6 |!<(! !tenuto!G2 !tenuto!F2 !tenuto!E2!<)! | %98
!mf! !tenuto!F2 !tenuto!G4 |!mp! F6 | A6 | c6 | d6 |!mf! z2 !tenuto!D2 !tenuto!E2 | !tenuto!F6 | %105
!<(! !tenuto!B6 | !tenuto!G6!<)! |!f! D6 | !tenuto!F2 !tenuto!G2 !tenuto!A2 | G6 | (AG F2) E2 | %111
!mf! F6 | A6 | c6 | A4 GF | E6 | A6- | A6- | A6 | A6 | =B6 | _d6 | e6 | d6 | d3 c3 | =B6 | B6 | %127
!mf! !tenuto!.A3 !tenuto!.A3 | !tenuto!.A3 z z2 ||!mf! (A2 F2 D2) | B2 G2 F2 | E2 c2 A2 | %132
 A2 A2 E2 | (F2 D2 F2) | (G2 E2 G2) | E2 ^C2 E2 | (^F2 F2 F2) | F3 E3 | D4 EF | E3 G3 | %140
 F2 C2 (FG) | (A2 FG A2) | B6 | A6 | d2 A2 A2 | (A2 F2 D2) | (B2 GF G2) | E2 cB A2 | A2 (AB A2) | %149
 (F2 DE F2) | (G2 GF G2) | E2 ^C2 E2 | (^F2 F2 F2) | (AG F2 D2) |!<(! (B2 G2 G2)!<)! | %155
!f! E2 cB A2 | (AC) (A2 A2) | (F2 DE F2) | (G2 G2 G2) | E2 ^C2 E2 | (^FG FE F2) | z6 | %162
 !fermata!z2 z2 z2 || z6 | z6 | z6 | z6 | z6 | z6 | z6 | z6 | z6 | z6 | z6 |!mp! (A^c de dc) | %175
 d3 e f2 | !tenuto!A2 !tenuto!=B2 !tenuto!^c2 | !tenuto!d6 |] %178
V:3
!mp! z2 !tenuto!C,!tenuto!D, !tenuto!E,!tenuto!F, | .G,2 .G,2 .G,2 | .G,2 .G,2 .G,2 | %3
 .G,2 .G,2 .G,2 | .G,2 !tenuto!F,!tenuto!E, !tenuto!D,!tenuto!E, | .F,2 .F,2 .F,2 | %6
 .E,2 .E,2 !tenuto!D,!tenuto!C, | !tenuto!.=B,,2 .B,,2 .B,,2 | z6 |!p! .G,2!<(! .G,2 .G,2!<)! | %10
!mp! .G,2 .G,2 .G,2 | .G,2 .G,2 .G,2 | .G,2 (F,E, D,E, | .F,2) (F,G, F,E, | D,2) D,2 (D,C,) | %15
 =B,,2 D,2 F,2 |!<(! !tenuto!=B,2 !tenuto!C2 !tenuto!D2!<)! ||!f! .E,2 z E, z2 | %18
 .E,2 z !tenuto!D, !tenuto!E,!tenuto!F, | .G,2 z G, z2 | .G,2 z2 !tenuto!G,!tenuto!B, | %21
 .A,2 z A, z2 | .A,2 z !tenuto!E, !tenuto!F,!tenuto!G, |!<(! !tenuto!C2 !tenuto!C2 !tenuto!C2 | %24
 !tenuto!A,2 !tenuto!G,2!<)! !tenuto!D,2 |!f! .E,2 z E, z2 | %26
 .E,2 z !tenuto!D, !tenuto!E,!tenuto!F, | .G,2 z G, z2 | .G,2 z2 !tenuto!G,!tenuto!B, | %29
 .A,2 z A, z2 | .A,2 z !tenuto!E, !tenuto!F,!tenuto!G, |!<(! !tenuto!C2 !tenuto!C2 !tenuto!C2 | %32
!ff! !tenuto!A,2!<)! !tenuto!G,2 !tenuto!D,2 ||!p! E6- | E6 | E6- | E6 | E6- | E6 | C6 | D6 | C6- | %42
 C6 | B,6 | G,2!mf! D,4 | C,6 | z6 | !>!A,,2 !>!E,4 |!<(! E,2 (D,E,) C,2!<)! |!f! E,2 (D,E,) C,2 | %50
 E,2 (D,E,) C,2 | E,2 (D,E,) C,2 | E,2 (D,E,) C,2 |!mf! G,6 | B,6 | F,4 (G,F,) | E,6 | G,3 _C3 | %58
 C3 F,3 | D,3 G,3 | A,3 F,3 | C,6 | G,3 B,3 | =A,6 | A,6 |!mf! !tenuto!.E3 !tenuto!.E3 | %66
 !tenuto!.E3 z z2 ||!mp! !>!C6 | B,6 | A,6 | G,6 | F,6 | E,6 | D,6 |!<(! E,6!<)! || %75
!f! .E,2 z E, z2 | .E,2 z !tenuto!D, !tenuto!E,!tenuto!F, | .G,2 z G, z2 | %78
 .G,2 z2 !tenuto!G,!tenuto!B, | .A,2 z A, z2 | .A,2 z !tenuto!E, !tenuto!F,!tenuto!G, | %81
!<(! !tenuto!C2 !tenuto!C2 !tenuto!C2 | !tenuto!A,2 !tenuto!G,2!<)! !tenuto!D,2 |!f! .E,2 z E, z2 | %84
 .E,2 z !tenuto!D, !tenuto!E,!tenuto!F, | .G,2 z G, z2 | .G,2 z2 !tenuto!G,!tenuto!B, | %87
 .A,2 z A, z2 | .A,2 z !tenuto!E, !tenuto!F,!tenuto!G, |!<(! !tenuto!C2 !tenuto!C2 !tenuto!C2 | %90
!ff! !tenuto!A,2!<)! !tenuto!G,2 !tenuto!D,2 ||!mp! C,6 | E,3 G,3 | F,6- | F,2 G,2 F,2 | E,3 F,3- | %96
 F,2!<(! F,2 G,2 | !tenuto!A,2 !tenuto!G,2 !tenuto!F,2!<)! |!mf! !tenuto!E,2 !tenuto!D,4 | %99
!mp! C,6 | z6 | z6 | z6 | z6 | z6 | z6 | z6 |!f! E,6 | !tenuto!G,2 !tenuto!=A,2 !tenuto!B,2 | %109
 =A,6 | (CB,) G,2 F,2 |!mf! G,6 | B,6 | F,4 G,F, | E,6 |!f! G,3 =A,3 | =B,3 C3 |!<(! D3 E3 | %118
 D3 C3!<)! |!f! G,3 =A,3 | =B,3 C3 |!<(! =B,3 C3 | D3 =B,3!<)! |!f! C6 | E3 D3 | C6- | C6 | %127
!mf! !tenuto!.E3 !tenuto!.E3 | !tenuto!.E3 z z2 || z6 | z6 | z6 | z6 | z6 | z6 | z6 | z6 | z6 | %138
 z6 | z6 | z6 | z6 | z6 | z6 | z6 |!mf! C3 B,3 | A,3 G,3 | F,4 (B,A,) | G,2 A,2 B,2 | C6 | %150
 (DE DC D2) | =B,6 | G,6 | C3 B,3 |!<(! A,3 G,3!<)! |!f! F,4 B,A, | G,2 A,2 B,2 | C6 | (DE DC D2) | %159
 _C6 | G,6 |!mp! G,6- | !fermata!G,2 z !tenuto!D, !tenuto!E,!tenuto!F, || .G,2 .G,2 .G,2 | %164
 .G,2 .G,2 .G,2 | .G,2 .G,2 .G,2 | .G,2 !tenuto!F,!tenuto!E, !tenuto!D,!tenuto!E, | %167
 .F,2 .F,2 .F,2 | .E,2 .E,2 !tenuto!D,!tenuto!C, | .=B,,2 .B,,2 .B,,2 | z6 | %171
!p! .G,2!<(! .G,2 .G,2!<)! |!mp! .G,2 .G,2 .G,2 | .G,2 .G,2 .G,2 | (G,F, E,D, C,D,) | E,3 D, C,2 | %176
 !tenuto!=B,,2 !tenuto!=A,,2 !tenuto!B,,2 | !tenuto!C,6 |] %178
V:4
 z6 | z6 | z6 | z6 | z6 | z6 | z6 |!mp! D,4 D,C, |!<(! =B,,2 C,2 D,2!<)! |!>(! C,3 G,,3!>)! | %10
!mp! C,3 E,3 | G,3 E,3 | (F,2 E,2) (D,E, | C,2 A,,2) (A,,G,, | F,,4) (=B,,C, | D,6) | %16
!<(! !tenuto!G,,2 !tenuto!=A,,2 !tenuto!=B,,2!<)! ||!f! .C,2 z C, z2 | %18
 .C,2 z !tenuto!B,, !tenuto!C,!tenuto!D, | .E,2 z E, z2 | .E,2 z2 !tenuto!E,!tenuto!G, | %21
 .F,2 z F, z2 | .F,2 z !tenuto!C, !tenuto!D,!tenuto!E, | %23
!<(! !tenuto!F,,2 !tenuto!E,,2 !tenuto!D,2 | !tenuto!C,2 !tenuto!=B,,2!<)! !tenuto!G,,2 | %25
!f! .C,2 z C, z2 | .C,2 z !tenuto!B,, !tenuto!C,!tenuto!D, | .E,2 z E, z2 | %28
 .E,2 z2 !tenuto!E,!tenuto!G, | .F,2 z F, z2 | .F,2 z !tenuto!C, !tenuto!D,!tenuto!E, | %31
!<(! !tenuto!F,2 !tenuto!E,2 !tenuto!D,2 |!ff! !tenuto!C,2!<)! !tenuto!=B,,2 !tenuto!G,,2 || z6 | %34
 z6 | z6 | z6 | z6 | z6 | z6 | z6 | z6 | z6 | z6 | z2 D,2 G,,2 |!mf! F,,6 | E,,2 F,,2 G,,2 | %47
 !>!A,,6 | z6 |!f! C,3 C,2 C, | C,4 C,C, | C,3 C,2 C, | C,4 C,C, |!mf! C,6 | E,,2 F,,2 G,,2 | %55
 B,,6 | A,,6 | G,,6 | A,,6 | G,,6 | F,,6 | C,6- | C,2 (E,F, G,2) | C,6- | C,6 | %65
!mf! !tenuto!.C,3 !tenuto!.C,3 | !tenuto!.C,3 z z2 ||!mp! !>!C,6 | G,,6 | A,,6 | E,,6 | F,,6 | %72
 C,,6 | G,,6 |!<(! C,6!<)! ||!f! .C,2 z C, z2 | .C,2 z !tenuto!B,, !tenuto!C,!tenuto!D, | %77
 .E,2 z E, z2 | .E,2 z2 !tenuto!E,!tenuto!G, | .F,2 z F, z2 | %80
 .F,2 z !tenuto!C, !tenuto!D,!tenuto!E, |!<(! !tenuto!F,2 !tenuto!E,2 !tenuto!D,2 | %82
 !tenuto!C,2 !tenuto!=B,,2!<)! !tenuto!G,,2 |!f! .C,2 z C, z2 | %84
 .C,2 z !tenuto!B,, !tenuto!C,!tenuto!D, | .E,2 z E, z2 | .E,2 z2 !tenuto!E,!tenuto!G, | %87
 .F,2 z F, z2 | .F,2 z !tenuto!C, !tenuto!D,!tenuto!E, |!<(! !tenuto!F,2 !tenuto!E,2 !tenuto!D,2 | %90
!ff! !tenuto!C,2!<)! !tenuto!=B,,2 !tenuto!G,,2 ||!mp! G,,6 | G,,3 C,3 | (B,,6 | B,,2) C,2 B,,2 | %95
 (A,,6 | A,,6) |!<(! !tenuto!F,2 !tenuto!E,2 !tenuto!D,2!<)! |!mf! !tenuto!C,2 !tenuto!B,,4 | %99
!mp! G,,6 |!mp! C,2 E,,2 G,,2 | F,,6- | F,,2 F,,2 G,,2 | A,,6- | A,,2 F,,2 G,,2 | %105
!<(! A,,2 G,,2 F,,2 | E,2 D,4!<)! |!f! C,3 C,2 C, | C,4 C,C, | C,3 C,2 C, | C,6 |!mf! C,6 | %112
 E,,2 F,,2 G,,2 | B,,6 | A,,6 | z6 | z6 | z6 | z6 |!f! G,,6- | G,,6- | G,,6- | G,,6 | C,6- | C,6 | %125
 C,6- | C,6 |!mf! !tenuto!.C,3 !tenuto!.C,3 | !tenuto!.C,3 z z2 ||!mp! C,4 (C,B,,) | A,,4 F,,2 | %131
 B,,6 | E,,2 F,,2 G,,2 | A,,3 G,, F,,E,, | D,,2 E,2 A,,2 | G,,3 D,3 | (C,G,) _F,2 D,2 | %137
 C,4 (C,B,,) | A,,4 F,,2 | B,,6 | E,,2 F,,2 G,,2 | A,,3 G,, F,,E,, | D,,2 E,2 A,,2 | G,,3 D,3 | %144
 (C,G,) _F,2 D,2 | C,4 (C,B,,) | A,,4 F,,2 | B,,6 | E,,2 F,,2 G,,2 | A,,3 G,, F,,E,, | %150
 D,,2 E,2 A,,2 | G,,3 D,3 | (C,G,) =E,2 D,2 | C,4 C,B,, |!<(! A,,4 F,,2!<)! |!f! B,,6 | %156
 E,,2 F,,2 G,,2 | A,,3 G,, F,,E,, | D,,2 E,2 A,,2 | G,,3 D,3 | (C,G,) =E,2 D,2 |!mp! C,6- | %162
 !fermata!C,2 z z z2 || z6 | z6 | z6 | z6 | z6 | z6 |!mp! D,4 D,C, | =B,,2!>(! C,2 D,2 | %171
 C,3 G,,3!>)! | C,3 E,3 | G,3 E,3 | (E,D, C,B,, C,D,) | C,3 C, C,2 | %176
 !tenuto!G,,2 !tenuto!G,,2 !tenuto!G,,2 | !tenuto!G,,6 |] %178

